X:1
T:We Walk by Faith
T:We Walk by Faith
T:Peter Philip Bilhorn
T:J. E. Wolfe, 1890
T:Public Domain Courtesy of the Cyber Hymnal™
C:Peter Philip Bilhorn
Z:Public Domain
Z:Courtesy of the Cyber Hymnal™
%%score ( 1 2 ) 3
L:1/8
Q:1/4=112
M:4/4
K:F
V:1 treble 
V:2 treble 
V:3 bass 
V:1
 C2 | [FA]2 [FA]2 [FG]2 F2 | [FA]2 [FA]2 [EG]2 F2 | [EG]2 [EG]2 F2 [EG]2 | [FA]4 [Fc]2 C2 | %5
w: 1.~By|child- like faith in|Christ the Lord, We|have from sin sal-|va- tion; By|
w: 2.~How|sim- ple is the|way of life, ’Tis|on- ly to be-|lieve Him; ’Twill|
w: 3.~Thro’|Je- sus’ death the|debt was paid, Not|feel- ing, nor e-|mo- tion; On|
w: 4.~We|walk by faith, and|not by sight: How|grand is this re-|veal- ing! ’Tis|
 [FA]2 [FA]2 [FG]2 F2 | [FA]2 [FA]2 [EG]2 [DF]2 | [DG]2 [GB]2 [FA]2 F2 | [EG]4 F2 || %9
w: ful- ly trust- ing|in His word, We|pass from con- dem-|na- tion.|
w: end your sor- row|and your strife If|you will but re-|ceive Him.|
w: Him our sin and|guilt was laid; O,|give Him your de-|vo- tion.|
w: God’s own way, and|must be right, ’Tis|wrong to trust in|feel- ing.|
"^Refrain" [FA]2 | c6 [^Fd]2 | B6 [^FA]2 | B6 [Gc]2 | A6 [FA]2 | c6 [G^c]2 | d6 [Ff]2 | %16
w: |||||||
w: We|walk by|faith, and|not by|sight; We|walk by|faith *|
w: |||||||
w: |||||||
 [Fc]2 [FA]2 [EB]2 [EG]2 | [CF]6 |] %18
w: ||
w: ||
w: ||
w: ||
V:2
 C2 | x6 F2 | x6 F2 | x4 F2 x2 | x6 C2 | x6 F2 | x8 | x6 F2 | x4 F2 || x2 | (^F2 F2 F2) x2 | %11
 (G2 D2 G2) x2 | (G2 G2 G2) x2 | (F2 C2 F2) x2 | (F2 F2 F2) x2 | (F2 F2 F2) x2 | x8 | x6 |] %18
V:3
 [F,A,]2 | [F,C]2 [F,C]2 [F,B,]2 [F,A,]2 | [F,C]2 [F,C]2 [C,B,]2 [C,A,]2 | %3
w: ~|~ ~ ~ ~|~ ~ ~ ~|
 [C,B,]2 [C,B,]2 [D,A,]2 [C,C]2 | [F,C]4 [F,A,]2 [F,A,]2 | [F,C]2 [F,C]2 [F,B,]2 [F,A,]2 | %6
w: ~ ~ ~ ~|~ ~ ~|~ ~ ~ ~|
 [F,C]2 [F,C]2 [C,B,]2 [D,A,]2 | [B,,B,]2 [G,,D]2 [C,C]2 [C,A,]2 | [C,B,]4 [F,A,]2 || [F,C]2 | %10
w: ~ ~ ~ ~|~ ~ ~ ~|~ ~|We|
 [F,A,]2 [C,A,]2 [F,A,]2 [D,A,]2 | [G,B,]2 [G,B,]2 [G,D]2 [D,D]2 | [G,D]2 [D,D]2 [G,D]2 [E,C]2 | %13
w: walk by faith, and|not by sight; ’Tis|God’s own way and|
 [F,C]2 [F,A,]2 [F,C]2 [F,C]2 | [F,A,]2 [C,A,]2 [F,A,]2 [E,A,]2 | %15
w: must be right; We|walk by faith, and|
 [D,A,]2 [C,A,]2 [B,,G,]2 [=B,,^G,]2 | [C,A,]2 [C,C]2 [C,G,]2 [C,B,]2 | [F,A,]6 |] %18
w: not by sight; We|fol- low Christ, the|Light.|

